protochess-front/static/images/chess_pieces/black/u.svg

<svg xmlns="http://www.w3.org/2000/svg" viewBox="0 0 45 45" fill-rule="evenodd" stroke="#000" xmlns:v="https://vecta.io/nano"><g fill="#000" stroke-linecap="round" stroke-linejoin="round" stroke-width="1.5"><path d="M22 10c10.5 1 16.5 8 16 29H15c0-9 10-6.5 8-21"/><path d="M24 18c.38 2.9-5.55 7.37-8 9-3 2-2.82 4.34-5 4-1.042-.94 1.4-3.04 0-3-1 0 .2 1.23-1 2-1 0-4 1-4-4 0-2 6-12 6-12S4.473 7.525 4.96 6.85 13.945 11.3 14 10.5c-.73-.994-.5-2-.5-3 1-1 3 2.5 3 2.5h2s.78-1.992 2.5-3c1 0 1 3 1 3"/></g><g fill="#fff"><path d="M9.5 25.5a.5.5 0 1 1-1 0 .5.5 0 1 1 1 0zm5.433-9.75c-.414.717-.944 1.187-1.183 1.05s-.097-.832.317-1.55.944-1.187 1.183-1.05.097.832-.317 1.55z" stroke-linejoin="round" stroke-width="1.5" stroke="#fff"/><path d="M24.55 10.4l-.45 1.45.5.15c3.15 1 5.65 2.5 7.9 6.75s3.25 10.3 2.75 20.25l-.05.5h2.25l.05-.5c.5-10.06-.88-16.85-3.25-21.34s-5.8-6.64-9.2-7.16l-.5-.1z" stroke="none"/></g></svg>

<?xml version="1.0" encoding="UTF-8" standalone="no"?>
<!DOCTYPE svg PUBLIC "-//W3C//DTD SVG 1.1//EN" "http://www.w3.org/Graphics/SVG/1.1/DTD/svg11.dtd">
<svg
        viewBox="0 0 45 45"
        xmlns="http://www.w3.org/2000/svg" version="1.1" >
 <g>
  <title>Unicorn</title>
  <g id="Head" style="opacity:1; fill:none; fill-opacity:1; fill-rule:evenodd; stroke:#000000; stroke-width:1.5; stroke-linecap:round;stroke-linejoin:round;stroke-miterlimit:4; stroke-dasharray:none; stroke-opacity:1;">
    <path id="Neck" d="M 22,10 C 32.5,11 38.5,18 38,39 L 15,39 C 15,30 25,32.5 23,18" style="fill:#000000; stroke:#000000;"/>
    <path id="Face" fill="#000000" d="m24,18c0.38,2.91 -5.55,7.37 -8,9c-3,2 -2.82,4.34 -5,4c-1.042,-0.94 1.41,-3.04 0,-3c-1,0 0.19,1.23 -1,2c-1,0 -4,1 -4,-4c0,-2 6,-12 6,-12c0,0 -7.5275,-6.475 -7.0413,-7.15c0.4863,-0.675 8.9863,4.45 9.0413,3.65c-0.73,-0.994 -0.5,-2 -0.5,-3c1,-1 3,2.5 3,2.5l2,0c0,0 0.78,-1.992 2.5,-3c1,0 1,3 1,3" style="fill:#000000; stroke:#000000;"/>
    <path id="Nose" d="M 9.5 25.5 A 0.5 0.5 0 1 1 8.5,25.5 A 0.5 0.5 0 1 1 9.5 25.5 z" style="fill:#ffffff; stroke:#ffffff;"/>
    <path id="Eye" d="M 15 15.5 A 0.5 1.5 0 1 1  14,15.5 A 0.5 1.5 0 1 1  15 15.5 z" transform="matrix(0.866,0.5,-0.5,0.866,9.693,-5.173)" style="fill:#ffffff; stroke:#ffffff;"/>
    <path id="Mane" d="M 24.55,10.4 L 24.1,11.85 L 24.6,12 C 27.75,13 30.25,14.49 32.5,18.75 C 34.75,23.01 35.75,29.06 35.25,39 L 35.2,39.5 L 37.45,39.5 L 37.5,39 C 38,28.94 36.62,22.15 34.25,17.66 C 31.88,13.17 28.46,11.02 25.06,10.5 L 24.55,10.4 z " style="fill:#ffffff; stroke:none;"/>
  </g>
 </g>
</svg>
